X:1
T:Du Lebensfürst, Herr Jesu Christ
T:Johann Sebastian Bach (1685 - 1750)
T:Johann Rist (1607 - 1667)
T:Du Lebensfürst, Herr Jesu Christ
T:Edición: Byrt Janssen (Granada, febrero 2010)
T:Edición: Byrt Janssen (Granada, febrero 2010)
T:Edición: Byrt Janssen (Granada, febrero 2010)
C:Johann Sebastian Bach
C:(1685 - 1750)
Z:Johann Rist
Z:(1607 - 1667)
Z:Edición: Byrt Janssen (Granada, febrero 2010)
%%score [ 1 2 3 4 ]
L:1/8
M:3/4
K:G
V:1 treble nm="SOPRANO" snm="S."
V:2 treble nm="CONTRALTO" snm="A."
V:3 treble-8 transpose=-12 nm="TENOR" snm="T."
V:4 bass nm="BAJO" snm="B."
V:1
 G2 G2 A2 | (B3 c d2) | d2 d2 ^c2 | !fermata!d4 B2 | c4 B2 | A6 | G2 F4 | G6 | G2 G2 A2 | %9
w: Du Le- bens-|fürst, _ _|Herr Je- su|Christ, der|du bist|auf-|ge- nom-|men|gen Him- mel|
w: Zieh uns dir|nach, _ _|so lau- fen|wir, gib|uns des|Glau-|bens Flü-|gel!|Hilf, dass wir|
 (B3 c d2) | d2 d2 ^c2 | !fermata!d4 B2 | c4 B2 | A6 | G2 F4 | G6 | A2 A2 B2 | c4 c2 | (B3 A) B2 | %19
w: da _ _|dein Va- ter|ist und|die Ge-|mein|der From-|men:|wie soll ich|dei- nen|gro- * ssen|
w: flie- * *|hen weit von|hier auf|Is- ra-|e-|lis Hü-|gel.|Mein Gott! wann|fahr ich|doch _ da-|
 !fermata!A6 | B2 B2 B2 | (c3 d e2) | e2 ^d2 d2 | !fermata!e4 f2 | g4 B2 | c4 B2 | %26
w: Sieg,|den du durch|ei- * *|nen schwe- ren|Krieg er-|wor- ben|hast, recht|
w: hin,|wo- selbst ich|e- * *|wig fröh- lich|bin? wann|werd ich|vor dir|
 A2 !fermata!A2 d2 | e3 d c2 | B2 A4 | G6 :| %30
w: prei- sen, und|dir gnug Ehr|er- wei-|sen?|
w: ste- hen, dein|An- ge- sicht|zu se-|hen?|
V:2
 D2 E2 F2 | G6 | G2 E2 E2 | !fermata!F4 G2 | E4 D2 | D6 | B,2 D4 | D6 | D2 E2 F2 | G6 | G2 E2 E2 | %11
w: Du le- bens-|fürst,|Herr Je- su|Christ, der|du bist|auf-|ge- nom-|men|gen Him- mel|da|dein Va- ter|
w: Zieh uns dir|nach,|so lau- fen|wir, gib|uns des|Glau-|bens Flü-|gel!|Hilf, dass wir|flie-|hen weit von|
 !fermata!F4 G2 | E4 D2 | D6 | B,2 D4 | D6 | D2 D2 D2 | C4 E2 | E4 E2 | !fermata!E6 | E2 ^G2 G2 | %21
w: ist und|die Ge-|mein|der From-|men:|wie soll ich|dei- nen|gro- ssen|Sieg,|den du durch|
w: hier auf|Is- ra-|e-|lis Hü-|gel.|Mein Gott! wann|fahr ich|doch da-|hin,|wo- selbst ich|
 A6 | A2 F2 F2 | !fermata!G4 A2 | B4 G2 | G4 G2 | F2 !fermata!F2 G2 | G3 F E2 | D2 D4 | D6 :| %30
w: ei-|nen schwe- ren|Krieg er-|wor- ben|hast recht|prei- sen, und|dir gnug Ehr|er- wei-|sen?|
w: e-|wig fröh- lich|bin? wann|werd ich|vor dir|ste- hen, dein|An- ge- sicht|zu se-|hen?|
V:3
 B2 B2 d2 | (d3 c B2) | B2 A2 A2 | !fermata!A4 G2 | G4 G2 | F6 | E2 A4 | B6 | B2 B2 d2 | %9
w: Du Le- bens-|fürst, _ _|Herr Je- su|Christ, der|du bist|auf-|ge- nom-|men|gen Him- mel|
w: Zieh uns dir|nach, _ _|so lau- fen|wir, gib|uns des|Glau-|bens Flü-|gel!|Hilf, dass wir|
 (d3 c B2) | B2 A2 A2 | !fermata!A4 G2 | G4 G2 | F6 | E2 A4 | B6 | F2 F2 ^G2 | A4 A2 | (^G3 A) G2 | %19
w: da _ _|dein Va- ter|ist und|die Ge-|mein|der From-|men:|wie soll ich|dei- nen|gro- * ssen|
w: flie- * *|hen weit von|hier auf|Is- ra-|e-|lis Hü-|gel.|Mein Gott! wann|fahr ich|doch _ da-|
 !fermata!A6 | ^G2 B2 e2 | (e3 d c2) | c2 B2 B2 | !fermata!B4 d2 | d4 d2 | e4 d2 | %26
w: Sieg,|den du durch|ei- * *|nen schwe- ren|Krieg er-|wor- ben|hast, recht|
w: hin,|wo- selbst ich|e- * *|wig fröh- lich|bin? wann|werd ich|vor dir|
 d2 !fermata!d2 d2 | c3 A G2 | G2 (G2 F2) | G6 :| %30
w: prei- sen, und|dir gnug Ehr|er- wei- *|sen?|
w: ste- hen, dein|An- ge- sicht|zu se- *|hen?|
V:4
 G,2 E,2 D,2 | (G,3 A, B,2) | G,2 A,2 A,,2 | !fermata!D,4 G,2 | C,4 G,,2 | D,6 | E,2 D,4 | G,,6 | %8
w: Du Le- bens-|fürst, _ _|Herr Je- su|Christ, der|du bist|auf-|ge- nom-|men|
w: Zieh uns dir|nach, _ _|so lau- fen|wir, gib|uns des|Glau-|bens Flü-|gel!|
 G,2 E,2 D,2 | (G,3 A, B,2) | G,2 A,2 A,,2 | !fermata!D,4 G,2 | C,4 G,,2 | D,6 | E,2 D,4 | G,,6 | %16
w: gen Him- mel|da _ _|dein Va- ter|ist und|die Ge-|mein|der From-|men:|
w: Hilf, dass wir|flie- * *|hen weit von|hier auf|Is- ra-|e-|lis Hü-|gel.|
 D,2 D,2 B,,2 | A,,4 C,2 | E,4 E,2 | !fermata!A,,6 | E,2 E,2 E,2 | (A,3 B, C2) | A,2 B,2 B,2 | %23
w: wie soll ich|dei- nen|gro- ssen|Sieg,|den du durch|ei- * *|nen schwe- ren|
w: Mein Gott! wann|fahr ich|doch da-|hin,|wo- selbst ich|e- * *|wig fröh- lich|
 !fermata!E,4 D,2 | G,4 G,2 | C,4 G,,2 | D,2 !fermata!D,2 B,,2 | C,3 D, E,2 | G,2 D,4 | G,,6 :| %30
w: Krieg er-|wor- ben|hast, recht|prei- sen, und|dir gnug Ehr|er- wei-|sen?|
w: bin? wann|werd ich|vor dir|ste- hen, dein|An- ge- sicht|zu- se-|hen?|

